X: 155
T: REEL: Shaskeen
C: C: Trad.; S: Shaskeen
C: Set Leaders: Mars, Anton
Z: Mars Agliullin ed., Anton Zille ed.; DanG at The Session
N: https://thesession.org/members/26966/sets/94278
R: Reel
M: 4/4
L: 1/8
Q: 1/2=100
K: Gmaj
|:DG~G2 ABcA|dged cA~A2|~B2GB ADFA|GBAG FGEF|
DG~G2 ABcA|dged cA~A2|~f2eg fdcA|1 AGFA ~G3E:|2 AGFA ~G2Bc||
|: dggf ~g2fg|abag fddc|~B2GB ADFA|GBAG FDD2|
|1 dggf ~g2fg|~a3g fdde|(3fga eg fdcA|AGFA ~G2Bc:||
|2 BG~G2 AF~F2|dB~B2 cA~A2|~f2ea fdcA|AGFA G3||

